X: 35773
T: Sally Gardens, The
R: reel
M: 4/4
K: Gmajor
|:G2 DG B2 GB|dBeB dBAB|d2 (3Bcd efge|dBAB GEDE|
G2 DG B2 GB|dBeB dBAB|d2 (3Bcd efge|dBAB G4:|
|:dggf g2dg|g2 bg ageg|eaag a2ea|a2 bg ageg|
dggf g2dg|g2 bg ageg|d2 (3Bcd efge|dBAB G2:|

